!!!!SEGMENT: Wil2016-Beata_dei_genitrix.krn
!!!id: Wil2016
!!!AGN: Motet
!!!SCT: Zenck (1950)
!!!voices: 4
!!!COM: Adrian Willaert
!!!OTL: Beata dei genitrix Maria
**kern	**kern	**kern	**kern
*part4	*part3	*part2	*part1
*staff4	*staff3	*staff2	*staff1
*I"Bassus	*I"Tenor	*I"Altus	*I"Superius
*I'B	*I'T	*I'A	*I'S
*clefF4	*clefG2	*clefGv2	*clefG2
*k[]	*k[]	*k[]	*k[]
*C:	*C:	*C:	*C:
*M2/1	*M2/1	*M2/1	*M2/1
*met(C|)	*met(C|)	*met(C|)	*met(C|)
!!section: Prima pars: Beata dei genitrix Maria
!!!OMD: Prima pars: Beata dei genitrix Maria
=1	=1	=1	=1
0r	0r	0r	1d
.	.	.	[1d
=2	=2	=2	=2
0r	0r	1r	2d]
.	.	.	2c
.	.	1A	1f
=3	=3	=3	=3
0r	0r	1.A	1e
.	.	.	2r
.	.	2G	2e
=4	=4	=4	=4
0r	0r	1c	2e
.	.	.	2e
.	.	1B	1g
=5	=5	=5	=5
0r	1d	2r	2.a
.	.	1A	.
.	.	.	4g
.	[1d	.	4f
.	.	.	4e
.	.	2A	[2f
=6	=6	=6	=6
0r	2d]	2B	2f]
.	2c	2.c	2e
.	1f	.	4A
.	.	4B	4B
.	.	[2A	4c
.	.	.	4A
=7	=7	=7	=7
1r	1e	2A]	1B
.	.	2G	.
1D	1r	2A	2A
.	.	[2F	[2a
=8	=8	=8	=8
1.D	1r	4F]	4a]
.	.	4G	4g
.	.	2.A	4f
.	.	.	4e
.	1a	.	2f
.	.	4B	.
2C	.	[2c	[2e
=9	=9	=9	=9
1F	1.a	2c]	2e]
.	.	4B	2d
.	.	4A	.
1E	.	1B	[1e
.	2g	.	.
=10	=10	=10	=10
2r	1cc	0E	0e]
2E	.	.	.
2G	1b	.	.
2G	.	.	.
=11	=11	=11	=11
2.A	2r	1F	1.c
.	1a	.	.
4G	.	.	.
4F	.	4F	.
4E	.	4G	.
2D	2f	4A	2d
.	.	4B	.
=12	=12	=12	=12
2C	2g	1c	2e
2AA	2a	.	2.f
1BB-X	2d	2.F	.
.	.	.	4e
.	[2f	.	2d
.	.	4G	.
=13	=13	=13	=13
0AA	2f]	0A	2c
.	4e	.	1d
.	4d	.	.
.	1e	.	.
.	.	.	2c#i
=14	=14	=14	=14
2r	0d	2r	1d
1A	.	1A	.
.	.	.	1r
2F	.	2A	.
=15	=15	=15	=15
2G	2r	2B	2r
2A	1a	2c	1a
1D	.	1d	.
.	2a	.	2f
=16	=16	=16	=16
0r	2b	0r	2g
.	2cc	.	2a
.	2.dd	.	2d
.	.	.	[2f
.	4cc	.	.
=17	=17	=17	=17
1r	4a	0r	2f]
.	4b	.	.
.	2.cc	.	2.e
2r	.	.	.
.	4b	.	4d
[2E	[2g	.	2c
=18	=18	=18	=18
2E]	2g]	1r	2B
2C	1a	.	2A
2D	.	2r	1B
2E	2g#i	[2e	.
=19	=19	=19	=19
1AA	1a	2e]	2A
.	.	2c	1a
2r	1r	2d	.
[2A	.	2e	2a
=20	=20	=20	=20
2A]	1r	1A	2e
2F	.	.	2a
2G	2r	2B	2g
2A	[2a	[2c	2e
=21	=21	=21	=21
1D	2a]	4c]	2.f
.	.	4A	.
.	2f	2B	.
.	.	.	8e
.	.	.	8d
2C	2g	1c	2e
2AA	2a	.	[2f
=22	=22	=22	=22
1BB-X	1d	2F	2f]
.	.	2G	4e
.	.	.	4d
1AA	2r	1A	1c
.	[2a	.	.
=23	=23	=23	=23
2r	2a]	2.F	2r
1F	2a	.	2c
.	.	4G	.
.	4a	4A	4f
.	4g	4B	4e
[2F	4a	2c	4f
.	4b	.	4g
=24	=24	=24	=24
2F]	2.cc	2F	2a
2C	.	2.c	1g
.	4b	.	.
2D	2a	.	.
.	.	4A	.
2D	2f	2B	[2f
=25	=25	=25	=25
1C	1g	1c	2f]
.	.	.	2e
2r	1f	2r	1f
[2F	.	[2c	.
=26	=26	=26	=26
2F]	2r	2c]	2r
2F	1a	2c	1f
1F	.	1c	.
.	2a	.	2f
=27	=27	=27	=27
1.F	2a	1.c	2f
.	1a	.	1f
2C	2g	2c	2e
=28	=28	=28	=28
1C	1g	1c	1e
2r	2.e	1G	2.c
[2C	.	.	.
.	4f	.	4d
=29	=29	=29	=29
2C]	2g	1c	2e
2AA	2a	.	2e
2D	2f	2A	2f
2C	[2g	2c	[2e
=30	=30	=30	=30
1BB-X	4g]	2d	4e]
.	4f	.	4d
.	4e	2G	1d
.	4d	.	.
1AA	2e	[1A	.
.	2e	.	2c#i
=31	=31	=31	=31
0D	1d	1A]	1d
.	1r	2r	1a
.	.	2A	.
=32	=32	=32	=32
1r	1r	2c	2g
.	.	2.d	2f
1A	2r	.	1e
.	.	4c#i	.
.	2a	4c#i	.
.	.	4B	.
=33	=33	=33	=33
2G	2b	1d	0r
2F	2.dd	.	.
1E	.	2r	.
.	4cc#i	.	.
.	4cc#i	2e	.
.	8bL	.	.
.	8cc#iJ	.	.
=34	=34	=34	=34
0r	2dd	2f	1a
.	2a	1e	.
.	2cc	.	2g
.	2dd	[2d	2f
=35	=35	=35	=35
2r	1a	2d]	2.e
2A	.	2c	.
.	.	.	4c
2G	1r	2B	2d
2F	.	[2A	2A
=36	=36	=36	=36
1E	1r	2A]	2B
.	.	2G	1e
2.AA	1a	[1c	.
.	.	.	2f
4BB	.	.	.
=37	=37	=37	=37
2C	2g	2c]	2e
2D	2f	2B	2.d
1AA	1e	[1A	.
.	.	.	4c#i
.	.	.	4c#i
.	.	.	8BL
.	.	.	8c#iJ
=38	=38	=38	=38
[0Dl	[0dl	2A]	[0dl
.	.	4G	.
.	.	4F	.
.	.	2.B-X	.
.	.	4A	.
=	=	=	=
00D]	00d]	00A	00d]
=||	=||	=||	=||
*M2/1	*M2/1	*M2/1	*M2/1
*met(C|)	*met(C|)	*met(C|)	*met(C|)
!!section: Secunda pars: Et beata quae credidit
!!!OMD: Secunda pars: Et beata quae credidit
0r	0r	0r	1A
.	.	.	2.c
.	.	.	4d
=39	=39	=39	=39
1r	0r	1A	2e
.	.	.	1f
2r	.	[1A	.
2AA	.	.	[2e
=40	=40	=40	=40
2C	0r	1A]	2e]
2D	.	.	4d
.	.	.	4c
1E	.	1G	1B
=41	=41	=41	=41
0r	0r	1c	1A
.	.	4c	2.e
.	.	4B	.
.	.	4c	.
.	.	4d	4f
=42	=42	=42	=42
0r	2r	2e	2g
.	2d	2.f	1a
.	2f	.	.
.	.	4e	.
.	2g	[2d	4g
.	.	.	4f
=43	=43	=43	=43
1r	1.a	4d]	2e
.	.	4c#i	.
.	.	4c#i	2e
.	.	4B	.
1D	.	2d	[1d
.	4g	2D	.
.	4f	.	.
=44	=44	=44	=44
0D	2b-X	2.F	1d]
.	1a	.	.
.	.	4G	.
.	.	1A	1r
.	4g	.	.
.	4f	.	.
=45	=45	=45	=45
1C	2e	2r	1r
.	2e	2G	.
[1F	1d	2A	2r
.	.	2F	2A
=46	=46	=46	=46
1F]	2r	1A	2c
.	2a	.	2d
1E	2b	1G	1e
.	2cc	.	.
=47	=47	=47	=47
2D	2.dd	0r	0r
1F	.	.	.
.	4cc	.	.
.	2a	.	.
[2E	[2cc	.	.
=48	=48	=48	=48
2E]	4cc]	0r	1r
.	4b	.	.
2.D	2.b	.	.
.	.	.	[1d
4C	4a	.	.
4BB	[2a	.	.
4AA	.	.	.
=49	=49	=49	=49
2BB	4a]	0r	2d]
.	4g	.	.
2BB	4a	.	2d
.	4b	.	.
[1AA	4cc	.	2e
.	4dd	.	.
.	[2ee	.	2c
=50	=50	=50	=50
1AA]	4ee]	1.A	1f
.	4dd	.	.
.	1dd	.	.
1r	.	.	1e
.	2cc#i	2A	.
=51	=51	=51	=51
1r	1dd	2B	2d
.	.	2G	2.g
[1E	1r	1c	.
.	.	.	4e
.	.	.	[2a
=52	=52	=52	=52
2E]	1r	1B	2a]
2E	.	.	2g#i
2F	2r	2A	[1a
2D	[2a	[2d	.
=53	=53	=53	=53
1F	2a]	4d]	1a]
.	.	4c	.
.	2a	8dL	.
.	.	8cJ	.
.	.	8BL	.
.	.	8AJ	.
1E	2cc	4G	1r
.	.	4A	.
.	2g	4B	.
.	.	4G	.
=54	=54	=54	=54
2AA	1cc	2A	1r
2.A	.	2A	.
.	1b	1E	2r
4G#i	.	.	.
4G#i	.	.	2e
8F#i	.	.	.
8G#i	.	.	.
=55	=55	=55	=55
2A	2.a	0r	2e
2A	.	.	2e
.	8b	.	.
.	8cc	.	.
1D	2.dd	.	2.f
.	4cc	.	4e
=56	=56	=56	=56
2r	2b	2r	2d
2AA	1a	2e	2c
2E	.	2e	2B
2E	2g#i	2e	2B
=57	=57	=57	=57
2.F	1a	2.d	1A
4E	.	4c	.
2D	2r	2B	2r
2C	2a	2A	2c
=58	=58	=58	=58
2BB	2b	2A	2.d
2BB	2b	2G#i	.
.	.	.	4e
1AA	2.cc	1A	2f
.	.	.	2e
.	4b	.	.
=59	=59	=59	=59
1r	2a	1r	2c
.	2g	.	2e
2r	2f	2r	2e
2A	2f	2A	2d
=60	=60	=60	=60
2A	1e	2B	0e
2G	.	2B	.
2.A	1r	2.c	.
4G	.	4B	.
=61	=61	=61	=61
2F	1r	2A	0r
2E	.	2G	.
2D	2r	2F	.
2D	2a	2F	.
=62	=62	=62	=62
1AA	2a	1E	2r
.	2a	.	2e
2r	2cc	1r	2e
2E	2cc	.	2e
=63	=63	=63	=63
2E	2.g	2r	2g
2E	.	2B	2g
.	4a	.	.
2G	4b	2B	2.d
.	4cc	.	.
2G	[2dd	2B	.
.	.	.	4e
=64	=64	=64	=64
2.D	4dd]	2d	4f
.	4cc	.	4g
.	2.a	2d	2.a
4E	.	.	.
4F	.	2A	.
4G	4b	.	4g
[2A	[2cc	4A	2e
.	.	4B	.
=65	=65	=65	=65
2A]	2cc]	4c	2f
.	.	4d	.
2G	2b	2e	2g
2A	2cc	2c	2e
2F	2a	2d	[2a
=66	=66	=66	=66
1E	2b	1e	2a]
.	2b	.	2g#i
2r	1a	2r	1a
[2F	.	[2c	.
=67	=67	=67	=67
2F]	2r	2c]	2r
2F	1a	2c	1f
1F	.	1c	.
.	2a	.	2f
=68	=68	=68	=68
1.F	2a	1.c	2f
.	1a	.	1f
2C	2g	2c	2e
=69	=69	=69	=69
1C	1g	1c	1e
2r	2.e	1G	2.c
[2C	.	.	.
.	4f	.	4d
=70	=70	=70	=70
2C]	2g	1c	2e
2AA	2a	.	2e
2D	2f	2A	2f
2C	[2g	2c	[2e
=71	=71	=71	=71
1BB-X	4g]	2d	4e]
.	4f	.	4d
.	4e	2G	1d
.	4d	.	.
1AA	2e	[1A	.
.	2e	.	2c#i
=72	=72	=72	=72
0D	1d	1A]	1d
.	1r	2r	1a
.	.	2A	.
=73	=73	=73	=73
1r	1r	2B	2g
.	.	2.d	2f
1A	2r	.	1e
.	.	4c#i	.
.	2a	4c#i	.
.	.	4B	.
=74	=74	=74	=74
2G	2b	1d	0r
2F	2.dd	.	.
1E	.	2r	.
.	4cc#i	.	.
.	4cc#i	2e	.
.	8b	.	.
.	8cc#i	.	.
=75	=75	=75	=75
0r	2dd	2f	1a
.	2a	1e	.
.	2cc	.	2g
.	2dd	[2d	2f
=76	=76	=76	=76
2r	1a	2d]	2.e
2A	.	2c	.
.	.	.	4c
2G	1r	2B	2d
2F	.	[2A	2A
=77	=77	=77	=77
1E	1r	2A]	2B
.	.	2G	1e
2.AA	1a	[1c	.
.	.	.	2f
4BB	.	.	.
=78	=78	=78	=78
2C	2g	2c]	2e
2D	2f	2B	2.d
1AA	1e	[1A	.
.	.	.	4c#i
.	.	.	4c#i
.	.	.	8B
.	.	.	8c#i
=79	=79	=79	=79
[0Dl	[0dl	2A]	[0dl
.	.	4G	.
.	.	4F	.
.	.	2.B-X	.
.	.	4A	.
=80	=80	=80	=80
00D]	00d]	00Al	00d]
==	==	==	==
*-	*-	*-	*-
!!!system-decoration: [*]
!!!RDF**kern: i = editorial accidental
!!!RDF**kern: l = terminal long
!!!ENC: Benjamin Ory
!!!END: 2020/12/17
!!!EED: Benjamin Ory
!!!EEV: 2021/04/30
!!!YEC: Copyright 2021 Benjamin Ory, All Rights Reserved
!!!ONB: Translated from MusicXML on 2021/04/30
